X:8406
T:Kas ha barh
C:Storvan
M:4/4
L:1/8
K:G
EFGA B3B|A2G2 FBAB|EFGA B3B|A2G2 F4:|\
|:EAGA F3F|F2GA B3B|
ABAF G3E|F2G2 EBAB|\
EAAG F3F|F2GA B3B|ABAF G3E|F2G2 E4:|
